X: 2
T: Put Me In The Big Chest
R: reel
M: 4/4
L: 1/8
K: Amaj
|:AF|EFAB c2 af|ecBA F2 AF|EFAB c2 ca|ecBc A2:||:Ac|efec eAAe|faec BABc|efec efac|BAcB A2:|


Tune 3105	Setting 3105

